public/img/icon/academ/banner-dom.svg

<svg width="1025" height="228" viewBox="0 0 1025 228" fill="none" xmlns="http://www.w3.org/2000/svg">
<path d="M0 0.968826H85.8999C109.455 0.968826 130.201 5.81302 148.137 15.5014C166.289 25.1898 180.336 38.6459 190.276 55.8697C200.433 73.0935 205.512 92.4703 205.512 114C205.512 135.53 200.433 154.907 190.276 172.13C180.336 189.354 166.289 202.81 148.137 212.499C130.201 222.187 109.455 227.031 85.8999 227.031H0V0.968826ZM85.2516 220.895C107.942 220.895 127.823 216.374 144.895 207.331C162.183 198.074 175.474 185.371 184.766 169.224C194.274 152.861 199.029 134.453 199.029 114C199.029 93.5467 194.274 75.2465 184.766 59.0991C175.474 42.7365 162.183 30.034 144.895 20.9915C127.823 11.7337 107.942 7.1048 85.2516 7.1048H6.48302V220.895H85.2516Z" fill="#CC9964"/>
<path d="M491.468 228C469.642 228 449.869 223.048 432.149 213.145C414.428 203.241 400.49 189.677 390.333 172.453C380.176 155.014 375.098 135.53 375.098 114C375.098 92.4703 380.176 73.0935 390.333 55.8697C400.49 38.4306 414.428 24.7592 432.149 14.8555C449.869 4.95184 469.642 0 491.468 0C513.294 0 533.068 4.95184 550.788 14.8555C568.508 24.7592 582.446 38.4306 592.603 55.8697C602.76 73.0935 607.838 92.4703 607.838 114C607.838 135.53 602.76 155.014 592.603 172.453C582.446 189.677 568.508 203.241 550.788 213.145C533.068 223.048 513.294 228 491.468 228ZM491.468 221.864C511.998 221.864 530.582 217.235 547.222 207.977C564.078 198.504 577.26 185.586 586.768 169.224C596.493 152.646 601.355 134.238 601.355 114C601.355 93.762 596.493 75.4618 586.768 59.0991C577.26 42.5212 564.078 29.6034 547.222 20.3456C530.582 10.8725 511.998 6.13598 491.468 6.13598C470.939 6.13598 452.246 10.8725 435.39 20.3456C418.75 29.6034 405.568 42.5212 395.844 59.0991C386.335 75.4618 381.581 93.762 381.581 114C381.581 134.238 386.335 152.646 395.844 169.224C405.568 185.586 418.75 198.504 435.39 207.977C452.246 217.235 470.939 221.864 491.468 221.864Z" fill="#CC9964"/>
<path d="M1025 0.968826V227.031H1018.52V14.8555L915.113 195.06H911.223L807.819 15.5014V227.031H801.336V0.968826H806.847L913.168 186.34L1019.49 0.968826H1025Z" fill="#CC9964"/>
</svg>

<svg width="1025" height="228" fill="none" xmlns="http://www.w3.org/2000/svg"><path d="M0 .969h85.9c23.555 0 44.301 4.844 62.237 14.532 18.152 9.689 32.199 23.145 42.139 40.369 10.157 17.224 15.236 36.6 15.236 58.13s-5.079 40.907-15.236 58.13c-9.94 17.224-23.987 30.68-42.139 40.369-17.936 9.688-38.682 14.532-62.237 14.532H0V.969zm85.252 219.926c22.69 0 42.571-4.521 59.643-13.564 17.288-9.257 30.579-21.96 39.871-38.107 9.508-16.363 14.263-34.771 14.263-55.224 0-20.453-4.755-38.754-14.263-54.9-9.292-16.364-22.583-29.066-39.871-38.109-17.072-9.257-36.953-13.886-59.643-13.886H6.483v213.79h78.769zM491.468 228c-21.826 0-41.599-4.952-59.319-14.855-17.721-9.904-31.659-23.468-41.816-40.692-10.157-17.439-15.235-36.923-15.235-58.453s5.078-40.906 15.235-58.13c10.157-17.44 24.095-31.11 41.816-41.014C449.869 4.951 469.642 0 491.468 0s41.6 4.952 59.32 14.855c17.72 9.904 31.658 23.576 41.815 41.015 10.157 17.224 15.235 36.6 15.235 58.13s-5.078 41.014-15.235 58.453c-10.157 17.224-24.095 30.788-41.815 40.692-17.72 9.903-37.494 14.855-59.32 14.855zm0-6.136c20.53 0 39.114-4.629 55.754-13.887 16.856-9.473 30.038-22.391 39.546-38.753 9.725-16.578 14.587-34.986 14.587-55.224s-4.862-38.538-14.587-54.9c-9.508-16.579-22.69-29.497-39.546-38.754-16.64-9.473-35.224-14.21-55.754-14.21-20.529 0-39.222 4.737-56.078 14.21-16.64 9.257-29.822 22.175-39.546 38.753-9.509 16.363-14.263 34.663-14.263 54.901 0 20.238 4.754 38.646 14.263 55.224 9.724 16.362 22.906 29.28 39.546 38.753 16.856 9.258 35.549 13.887 56.078 13.887zM1025 .969V227.03h-6.48V14.856L915.113 195.06h-3.89L807.819 15.501v211.53h-6.483V.969h5.511L913.168 186.34 1019.49.969h5.51z" fill="#CC9964"/></svg>
